src/assets/svgs/brick-trowel-sm.svg

<svg width="32" height="32" viewBox="0 0 32 32" fill="none" xmlns="http://www.w3.org/2000/svg">
<path d="M21.5253 20.9493L20.1599 19.328L17.7066 21.376C17.2373 21.76 16.5759 21.696 16.1919 21.248L15.1253 19.968L7.87193 21.2693L0.405261 3.45598C0.213261 3.02931 0.341261 2.51731 0.703927 2.21864L1.79193 1.32264C2.13326 1.02397 2.64526 0.981308 3.05059 1.23731L19.3066 11.6693L16.7466 18.6026L17.1519 19.072L19.6053 17.0026C20.0533 16.6186 20.7146 16.6826 21.0986 17.1306L23.1466 19.584C23.6159 19.2 24.2773 19.264 24.6613 19.712L31.5093 27.8826C31.8933 28.352 31.8293 29.0133 31.3813 29.3973L29.7386 30.7626C29.2906 31.1466 28.6293 31.0826 28.2453 30.6346L21.3973 22.464C21.2145 22.2456 21.1255 21.964 21.1495 21.6803C21.1734 21.3966 21.3085 21.1339 21.5253 20.9493ZM11.1359 18.5173L10.8373 13.2053L16.0213 14.4213L16.7039 12.544L2.77326 3.60531L9.17326 18.88L11.1359 18.5173Z" fill="#BA0800"/>
</svg>

<svg width="32" height="32" fill="none" xmlns="http://www.w3.org/2000/svg"><path d="m21.525 20.95-1.365-1.622-2.453 2.048c-.47.384-1.131.32-1.515-.128l-1.067-1.28-7.253 1.301L.405 3.456a1.056 1.056 0 0 1 .299-1.237l1.088-.896a1.056 1.056 0 0 1 1.259-.086L19.307 11.67l-2.56 6.934.405.469 2.453-2.07a1.054 1.054 0 0 1 1.494.129l2.048 2.453c.469-.384 1.13-.32 1.514.128l6.848 8.17c.384.47.32 1.131-.128 1.515l-1.642 1.366c-.448.384-1.11.32-1.494-.128l-6.848-8.171a1.08 1.08 0 0 1 .128-1.515Zm-10.39-2.433-.298-5.312 5.184 1.216.683-1.877-13.93-8.939 6.4 15.275 1.962-.363Z" fill="#BA0800"/></svg>
